X: 22398
T: Lad With The Trousers On, The
R: slip jig
M: 9/8
K: Aminor
dAc BGB AFA|c2c cdc B2A|dAc BGB AFA|d2d ded c2A:|
|:F2A E2A D2B|c2c cdc B2A|F2A E2A D2c|d2d ded c2A:|
|:d2e fdf ecA|c2c cdc B2A|1 d2e fdf ecA|
d2d ded c2A:|2 dAc BGB AFA|d2d ded c2A||

